assets/social-icons/twitter.svg

<svg width="32" height="32" viewBox="0 0 1200 1227" xmlns="http://www.w3.org/2000/svg"><path d="M714.163 519.284 1160.89 0h-105.86L667.137 450.887 357.328 0H0l468.492 681.821L0 1226.37h105.866l409.625-476.152 327.181 476.152H1200L714.137 519.284h.026ZM569.165 687.828l-47.468-67.894-377.686-540.24h162.604l304.797 435.991 47.468 67.894 396.2 566.721H892.476L569.165 687.854v-.026Z"/></svg>

<svg width="32" height="32" viewBox="0 0 1200 1227" fill="#000" xmlns="http://www.w3.org/2000/svg">
<path d="M714.163 519.284L1160.89 0H1055.03L667.137 450.887L357.328 0H0L468.492 681.821L0 1226.37H105.866L515.491 750.218L842.672 1226.37H1200L714.137 519.284H714.163ZM569.165 687.828L521.697 619.934L144.011 79.6944H306.615L611.412 515.685L658.88 583.579L1055.08 1150.3H892.476L569.165 687.854V687.828Z"/>
</svg>
